src/frontend/src/assets/icons/pass_logo.svg

<svg fill="none" height="112" viewBox="0 0 112 112" width="112" xmlns="http://www.w3.org/2000/svg" xmlns:xlink="http://www.w3.org/1999/xlink"><filter id="a" color-interpolation-filters="sRGB" filterUnits="userSpaceOnUse" height="101.315" width="101.315" x="5.34247" y="5.34247"><feFlood flood-opacity="0" result="BackgroundImageFix"/><feColorMatrix in="SourceAlpha" result="hardAlpha" type="matrix" values="0 0 0 0 0 0 0 0 0 0 0 0 0 0 0 0 0 0 127 0"/><feOffset/><feGaussianBlur stdDeviation=".172516"/><feComposite in2="hardAlpha" operator="out"/><feColorMatrix type="matrix" values="0 0 0 0 0.360784 0 0 0 0 0.756863 0 0 0 0 0.447059 0 0 0 1 0"/><feBlend in2="BackgroundImageFix" mode="normal" result="effect1_dropShadow_1_10071"/><feBlend in="SourceGraphic" in2="effect1_dropShadow_1_10071" mode="normal" result="shape"/></filter><clipPath id="b"><rect height="112" rx="17.5" width="112"/></clipPath><g clip-path="url(#b)"><rect fill="#5cc172" height="112" rx="17.5" width="112"/><g filter="url(#a)"><path d="m106.312 56c0 27.7868-22.5252 50.312-50.312 50.312s-50.3125-22.5252-50.3125-50.312 22.5257-50.3125 50.3125-50.3125 50.312 22.5257 50.312 50.3125z" fill="#101112"/></g><path d="m-10.6408 88.1842h-20.6404v-10.6622h19.1461c2.42824 0 4.60746-.1531 6.53764-.4595 1.99244-.3677 3.70471-.7354 5.136779-1.103 1.432066-.3677 2.832981-1.0723 4.202791-2.114 1.43206-1.103 2.55277-1.9915 3.3622-2.6656.80943-.674 1.80569-1.8996 2.98869-3.6766s2.0547-3.1251 2.6151-4.0442c.5603-.9805 1.4943-2.6962 2.8018-5.1473 1.3698-2.451 2.4283-4.32 3.1754-5.6068 4.1095-7.2919 6.6-11.5506 7.4717-12.7761 4.6698-6.9856 10.3358-11.612 16.9981-13.8792 4.2339-1.4706 9.1216-2.2059 14.6631-2.2059h20.08v10.6621h-18.4923c-4.3585 0-8.032.4289-11.0207 1.2868-2.9887.7966-5.5726 2.2059-7.7518 4.2281-2.1792 2.0221-4.016 4.1668-5.5104 6.434-1.432 2.206-3.2065 5.2392-5.3235 9.0996-.8094 1.5319-1.4321 2.6962-1.8679 3.4928-.6227 1.0417-1.4944 2.6348-2.6151 4.7795-1.1208 2.0834-1.9924 3.6766-2.615 4.7796-.6227 1.103-1.4944 2.5736-2.6152 4.4119-1.1207 1.777-2.1792 3.1864-3.1754 4.2281-.934.9804-2.117 2.1447-3.5491 3.4928-1.3698 1.3481-2.8329 2.3897-4.38952 3.1251-1.5566.7353-3.33112 1.5012-5.32356 2.2978-1.93017.7354-4.109421 1.2562-6.53771 1.5626-2.36602.3064-4.94996.4596-7.75181.4596z" fill="#5cc172"/><path d="m54.9315 88.1842h-20.6405v-10.6622h19.1461c2.4283 0 4.6075-.1531 6.5377-.4595 1.9924-.3677 3.7048-.7354 5.1368-1.103 1.4321-.3677 2.833-1.0723 4.2028-2.114 1.4321-1.103 2.5528-1.9915 3.3622-2.6656.8094-.674 1.8057-1.8996 2.9887-3.6766s2.0547-3.1251 2.615-4.0442c.5604-.9805 1.4944-2.6962 2.8019-5.1473 1.3698-2.451 2.4283-4.32 3.1755-5.6068 4.1094-7.2919 6.5999-11.5506 7.4716-12.7761 4.6698-6.9856 10.3357-11.612 16.9977-13.8792 4.234-1.4706 9.122-2.2059 14.663-2.2059h20.081v10.6621h-18.493c-4.358 0-8.032.4289-11.02 1.2868-2.989.7966-5.573 2.2059-7.752 4.2281-2.18 2.0221-4.016 4.1668-5.511 6.434-1.4318 2.206-3.2063 5.2392-5.3232 9.0996-.8095 1.5319-1.4321 2.6962-1.8679 3.4928-.6227 1.0417-1.4944 2.6348-2.6151 4.7795-1.1208 2.0834-1.9925 3.6766-2.6151 4.7796-.6227 1.103-1.4943 2.5736-2.6151 4.4119-1.1207 1.777-2.1792 3.1864-3.1755 4.2281-.9339.9804-2.1169 2.1447-3.549 3.4928-1.3698 1.3481-2.833 2.3897-4.3895 3.1251-1.5566.7353-3.3311 1.5012-5.3236 2.2978-1.9301.7354-4.1094 1.2562-6.5377 1.5626-2.366.3064-4.9499.4596-7.7518.4596z" fill="#5cc172"/><g stroke="#5cc172" stroke-width="4.15625"><path d="m-10.6408 88.1842h-20.6404v-10.6622h19.1461c2.42824 0 4.60746-.1531 6.53764-.4595 1.99244-.3677 3.70471-.7354 5.136779-1.103 1.432066-.3677 2.832981-1.0723 4.202791-2.114 1.43206-1.103 2.55277-1.9915 3.3622-2.6656.80943-.674 1.80569-1.8996 2.98869-3.6766s2.0547-3.1251 2.6151-4.0442c.5603-.9805 1.4943-2.6962 2.8018-5.1473 1.3698-2.451 2.4283-4.32 3.1754-5.6068 4.1095-7.2919 6.6-11.5506 7.4717-12.7761 4.6698-6.9856 10.3358-11.612 16.9981-13.8792 4.2339-1.4706 9.1216-2.2059 14.6631-2.2059h20.08v10.6621h-18.4923c-4.3585 0-8.032.4289-11.0207 1.2868-2.9887.7966-5.5726 2.2059-7.7518 4.2281-2.1792 2.0221-4.016 4.1668-5.5104 6.434-1.432 2.206-3.2065 5.2392-5.3235 9.0996-.8094 1.5319-1.4321 2.6962-1.8679 3.4928-.6227 1.0417-1.4944 2.6348-2.6151 4.7795-1.1208 2.0834-1.9924 3.6766-2.615 4.7796-.6227 1.103-1.4944 2.5736-2.6152 4.4119-1.1207 1.777-2.1792 3.1864-3.1754 4.2281-.934.9804-2.117 2.1447-3.5491 3.4928-1.3698 1.3481-2.8329 2.3897-4.38952 3.1251-1.5566.7353-3.33112 1.5012-5.32356 2.2978-1.93017.7354-4.109421 1.2562-6.53771 1.5626-2.36602.3064-4.94996.4596-7.75181.4596z"/><path d="m54.9315 88.1842h-20.6405v-10.6622h19.1461c2.4283 0 4.6075-.1531 6.5377-.4595 1.9924-.3677 3.7048-.7354 5.1368-1.103 1.4321-.3677 2.833-1.0723 4.2028-2.114 1.4321-1.103 2.5528-1.9915 3.3622-2.6656.8094-.674 1.8057-1.8996 2.9887-3.6766s2.0547-3.1251 2.615-4.0442c.5604-.9805 1.4944-2.6962 2.8019-5.1473 1.3698-2.451 2.4283-4.32 3.1755-5.6068 4.1094-7.2919 6.5999-11.5506 7.4716-12.7761 4.6698-6.9856 10.3357-11.612 16.9977-13.8792 4.234-1.4706 9.122-2.2059 14.663-2.2059h20.081v10.6621h-18.493c-4.358 0-8.032.4289-11.02 1.2868-2.989.7966-5.573 2.2059-7.752 4.2281-2.18 2.0221-4.016 4.1668-5.511 6.434-1.4318 2.206-3.2063 5.2392-5.3232 9.0996-.8095 1.5319-1.4321 2.6962-1.8679 3.4928-.6227 1.0417-1.4944 2.6348-2.6151 4.7795-1.1208 2.0834-1.9925 3.6766-2.6151 4.7796-.6227 1.103-1.4943 2.5736-2.6151 4.4119-1.1207 1.777-2.1792 3.1864-3.1755 4.2281-.9339.9804-2.1169 2.1447-3.549 3.4928-1.3698 1.3481-2.833 2.3897-4.3895 3.1251-1.5566.7353-3.3311 1.5012-5.3236 2.2978-1.9301.7354-4.1094 1.2562-6.5377 1.5626-2.366.3064-4.9499.4596-7.7518.4596z"/></g></g></svg>

<svg width="112" height="112" viewBox="0 0 112 112" fill="none" xmlns="http://www.w3.org/2000/svg">
<g clip-path="url(#clip0_1_10071)">
<rect width="112" height="112" rx="17.5" fill="#5CC172"/>
<g filter="url(#filter0_d_1_10071)">
<path d="M106.312 56C106.312 83.7868 83.7868 106.312 56 106.312C28.2132 106.312 5.6875 83.7868 5.6875 56C5.6875 28.2132 28.2132 5.6875 56 5.6875C83.7868 5.6875 106.312 28.2132 106.312 56Z" fill="#101112"/>
</g>
<path d="M-10.6408 88.1842H-31.2812V77.522H-12.1351C-9.70686 77.522 -7.52764 77.3689 -5.59746 77.0625C-3.60502 76.6948 -1.89275 76.3271 -0.460681 75.9595C0.971385 75.5918 2.3723 74.8872 3.74211 73.8455C5.17417 72.7425 6.29488 71.854 7.10431 71.1799C7.91374 70.5059 8.91 69.2803 10.093 67.5033C11.276 65.7263 12.1477 64.3782 12.7081 63.4591C13.2684 62.4786 14.2024 60.7629 15.5099 58.3118C16.8797 55.8608 17.9382 53.9918 18.6853 52.705C22.7948 45.4131 25.2853 41.1544 26.157 39.9289C30.8268 32.9433 36.4928 28.3169 43.1551 26.0497C47.389 24.5791 52.2767 23.8438 57.8182 23.8438H77.8982V34.5059H59.4059C55.0474 34.5059 51.3739 34.9348 48.3852 35.7927C45.3965 36.5893 42.8126 37.9986 40.6334 40.0208C38.4542 42.0429 36.6174 44.1876 35.123 46.4548C33.691 48.6608 31.9165 51.694 29.7995 55.5544C28.9901 57.0863 28.3674 58.2506 27.9316 59.0472C27.3089 60.0889 26.4372 61.682 25.3165 63.8267C24.1957 65.9101 23.3241 67.5033 22.7015 68.6063C22.0788 69.7093 21.2071 71.1799 20.0863 73.0182C18.9656 74.7952 17.9071 76.2046 16.9109 77.2463C15.9769 78.2267 14.7939 79.391 13.3618 80.7391C11.992 82.0872 10.5289 83.1288 8.97228 83.8642C7.41568 84.5995 5.64116 85.3654 3.64872 86.162C1.71855 86.8974 -0.460701 87.4182 -2.88899 87.7246C-5.25501 88.031 -7.83895 88.1842 -10.6408 88.1842Z" fill="#5CC172"/>
<path d="M54.9315 88.1842H34.291V77.522H53.4371C55.8654 77.522 58.0446 77.3689 59.9748 77.0625C61.9672 76.6948 63.6796 76.3271 65.1116 75.9595C66.5437 75.5918 67.9446 74.8872 69.3144 73.8455C70.7465 72.7425 71.8672 71.854 72.6766 71.1799C73.486 70.5059 74.4823 69.2803 75.6653 67.5033C76.8483 65.7263 77.72 64.3782 78.2803 63.4591C78.8407 62.4786 79.7747 60.7629 81.0822 58.3118C82.452 55.8608 83.5105 53.9918 84.2577 52.705C88.3671 45.4131 90.8576 41.1544 91.7293 39.9289C96.3991 32.9433 102.065 28.3169 108.727 26.0497C112.961 24.5791 117.849 23.8438 123.39 23.8438H143.471V34.5059H124.978C120.62 34.5059 116.946 34.9348 113.958 35.7927C110.969 36.5893 108.385 37.9986 106.206 40.0208C104.026 42.0429 102.19 44.1876 100.695 46.4548C99.2632 48.6608 97.4887 51.694 95.3718 55.5544C94.5623 57.0863 93.9397 58.2506 93.5039 59.0472C92.8812 60.0889 92.0095 61.682 90.8888 63.8267C89.768 65.9101 88.8963 67.5033 88.2737 68.6063C87.651 69.7093 86.7794 71.1799 85.6586 73.0182C84.5379 74.7952 83.4794 76.2046 82.4831 77.2463C81.5492 78.2267 80.3662 79.391 78.9341 80.7391C77.5643 82.0872 76.1011 83.1288 74.5446 83.8642C72.988 84.5995 71.2135 85.3654 69.221 86.162C67.2909 86.8974 65.1116 87.4182 62.6833 87.7246C60.3173 88.031 57.7334 88.1842 54.9315 88.1842Z" fill="#5CC172"/>
<path d="M-10.6408 88.1842H-31.2812V77.522H-12.1351C-9.70686 77.522 -7.52764 77.3689 -5.59746 77.0625C-3.60502 76.6948 -1.89275 76.3271 -0.460681 75.9595C0.971385 75.5918 2.3723 74.8872 3.74211 73.8455C5.17417 72.7425 6.29488 71.854 7.10431 71.1799C7.91374 70.5059 8.91 69.2803 10.093 67.5033C11.276 65.7263 12.1477 64.3782 12.7081 63.4591C13.2684 62.4786 14.2024 60.7629 15.5099 58.3118C16.8797 55.8608 17.9382 53.9918 18.6853 52.705C22.7948 45.4131 25.2853 41.1544 26.157 39.9289C30.8268 32.9433 36.4928 28.3169 43.1551 26.0497C47.389 24.5791 52.2767 23.8438 57.8182 23.8438H77.8982V34.5059H59.4059C55.0474 34.5059 51.3739 34.9348 48.3852 35.7927C45.3965 36.5893 42.8126 37.9986 40.6334 40.0208C38.4542 42.0429 36.6174 44.1876 35.123 46.4548C33.691 48.6608 31.9165 51.694 29.7995 55.5544C28.9901 57.0863 28.3674 58.2506 27.9316 59.0472C27.3089 60.0889 26.4372 61.682 25.3165 63.8267C24.1957 65.9101 23.3241 67.5033 22.7015 68.6063C22.0788 69.7093 21.2071 71.1799 20.0863 73.0182C18.9656 74.7952 17.9071 76.2046 16.9109 77.2463C15.9769 78.2267 14.7939 79.391 13.3618 80.7391C11.992 82.0872 10.5289 83.1288 8.97228 83.8642C7.41568 84.5995 5.64116 85.3654 3.64872 86.162C1.71855 86.8974 -0.460701 87.4182 -2.88899 87.7246C-5.25501 88.031 -7.83895 88.1842 -10.6408 88.1842Z" stroke="#5CC172" stroke-width="4.15625"/>
<path d="M54.9315 88.1842H34.291V77.522H53.4371C55.8654 77.522 58.0446 77.3689 59.9748 77.0625C61.9672 76.6948 63.6796 76.3271 65.1116 75.9595C66.5437 75.5918 67.9446 74.8872 69.3144 73.8455C70.7465 72.7425 71.8672 71.854 72.6766 71.1799C73.486 70.5059 74.4823 69.2803 75.6653 67.5033C76.8483 65.7263 77.72 64.3782 78.2803 63.4591C78.8407 62.4786 79.7747 60.7629 81.0822 58.3118C82.452 55.8608 83.5105 53.9918 84.2577 52.705C88.3671 45.4131 90.8576 41.1544 91.7293 39.9289C96.3991 32.9433 102.065 28.3169 108.727 26.0497C112.961 24.5791 117.849 23.8438 123.39 23.8438H143.471V34.5059H124.978C120.62 34.5059 116.946 34.9348 113.958 35.7927C110.969 36.5893 108.385 37.9986 106.206 40.0208C104.026 42.0429 102.19 44.1876 100.695 46.4548C99.2632 48.6608 97.4887 51.694 95.3718 55.5544C94.5623 57.0863 93.9397 58.2506 93.5039 59.0472C92.8812 60.0889 92.0095 61.682 90.8888 63.8267C89.768 65.9101 88.8963 67.5033 88.2737 68.6063C87.651 69.7093 86.7794 71.1799 85.6586 73.0182C84.5379 74.7952 83.4794 76.2046 82.4831 77.2463C81.5492 78.2267 80.3662 79.391 78.9341 80.7391C77.5643 82.0872 76.1011 83.1288 74.5446 83.8642C72.988 84.5995 71.2135 85.3654 69.221 86.162C67.2909 86.8974 65.1116 87.4182 62.6833 87.7246C60.3173 88.031 57.7334 88.1842 54.9315 88.1842Z" stroke="#5CC172" stroke-width="4.15625"/>
</g>
<defs>
<filter id="filter0_d_1_10071" x="5.34247" y="5.34247" width="101.315" height="101.315" filterUnits="userSpaceOnUse" color-interpolation-filters="sRGB">
<feFlood flood-opacity="0" result="BackgroundImageFix"/>
<feColorMatrix in="SourceAlpha" type="matrix" values="0 0 0 0 0 0 0 0 0 0 0 0 0 0 0 0 0 0 127 0" result="hardAlpha"/>
<feOffset/>
<feGaussianBlur stdDeviation="0.172516"/>
<feComposite in2="hardAlpha" operator="out"/>
<feColorMatrix type="matrix" values="0 0 0 0 0.360784 0 0 0 0 0.756863 0 0 0 0 0.447059 0 0 0 1 0"/>
<feBlend mode="normal" in2="BackgroundImageFix" result="effect1_dropShadow_1_10071"/>
<feBlend mode="normal" in="SourceGraphic" in2="effect1_dropShadow_1_10071" result="shape"/>
</filter>
<clipPath id="clip0_1_10071">
<rect width="112" height="112" rx="17.5" fill="white"/>
</clipPath>
</defs>
</svg>
